X: 34306
T: Restless Boy, The
R: jig
M: 6/8
K: Gmajor
|:BGG AFD|BdB BAG|BGG AFD|GAG GED|
BGG AFD|BAG ABc|dge f2d|1 cAF G2A:|2 cAF G2D||
|:GBd g2g|fed cAF|GBd g2e|f/g/af g2e|
f/g/af g2e|fed cAF|GBB BAG|B/c/dB cAF:|
|:GBB B2d|cAA dcA|GBB BAG|B/c/dB cAF|
GBB B2d|cAA ABc|dge f2d|1 cAF G2D:|2 cAF G2A||

